X:1
T:El lago de los cisnes
T:El lago de los cisnes
T:Escena del ballet "El lago de los cisnes"
T:P.I.Tchaikovsky
T:Arr. A.G.Chico
C:P.I.Tchaikovsky
Z:Arr. A.G.Chico
L:1/8
Q:1/4=88
M:4/4
K:C
V:1 treble-8 nm="Guitarra clásica" snm="Guit."
V:1
 !0!e4 !2!A!0!B!1!c!3!d | e3 c e3 c | e3 A cA!3!Fc | A4- AdcB | e4 ABcd | e3 c e3 c | e3 A cAFc | %7
 A6 !0!A,2 | !2!B,2 !3!C2 !0!D2 !2!E!3!F | !0!G3 F E2 FG | !2!A3 G F2 GA | !0!B3 A ECB,A, | %12
 B,2 C2 D2 EF | G3 F E2 FG | A3 G F2 GA | !3!_B3 F D2 FB | !0!B3 !4!^F B4 | %17
 !0!e4 !2!A!0!B!1!c!3!d | e3 c e3 c | e3 A cA!3!Fc | A4- AdcB | e4 ABcd | e3 c e3 c | e3 A cAFc | %24
 A8 |] %25

